src/actions/24/games-achievements.svg

<svg xmlns="http://www.w3.org/2000/svg" viewBox="0 0 24 24">
  <defs id="defs3051">
    <style type="text/css" id="current-color-scheme">
      .ColorScheme-Text {
        color:#2e3440;
      }
      </style>
  </defs>
 <path style="fill:currentColor;fill-opacity:1;stroke:none" 
     d="M 13 5 C 10.784 5 9 6.784 9 9 C 9 10.482971 9.8072919 11.75838 11 12.449219 L 11 21 L 13 19 L 15 21 L 15 12.449219 C 16.192708 11.75838 17 10.482971 17 9 C 17 6.784 15.216 5 13 5 z M 13 6 C 14.662 6 16 7.338 16 9 C 16 10.662 14.662 12 13 12 C 11.338 12 10 10.662 10 9 C 10 7.338 11.338 6 13 6 z M 13 7 L 12.380859 8.3164062 L 11 8.5273438 L 12 9.5527344 L 11.763672 11 L 13 10.316406 L 14.236328 11 L 14 9.5527344 L 15 8.5273438 L 13.619141 8.3164062 L 13 7 z "
     class="ColorScheme-Text"
     />
</svg>

<svg viewBox="0 0 24 24" xmlns="http://www.w3.org/2000/svg">
 <defs>
  <style type="text/css">.ColorScheme-Text {
        color:#2e3440;
      }</style>
 </defs>
 <path class="ColorScheme-Text" d="m13 5c-2.216 0-4 1.784-4 4 0 1.483 0.80729 2.7584 2 3.4492v8.5508l2-2 2 2v-8.5508c1.1927-0.69084 2-1.9662 2-3.4492 0-2.216-1.784-4-4-4zm0 1c1.662 0 3 1.338 3 3s-1.338 3-3 3-3-1.338-3-3 1.338-3 3-3zm0 1-0.61914 1.3164-1.3809 0.21094 1 1.0254-0.23633 1.4473 1.2363-0.68359 1.2363 0.68359-0.23633-1.4473 1-1.0254-1.3809-0.21094-0.61914-1.3164z" fill="currentColor"/>
</svg>
